X: 27296
T: Miss Wedderburn's
R: reel
M: 4/4
K: Gmajor
D3 E G3 B|AGAB AGEG|D3 E G3 B|1 AGAB G2 G2:|2 AGAB G2 AB|
|:c2 ec B2 dB|AGAB AGEG|1 c2 ec B2 dB|AGAB G2 AB:|2 D3 E G3 B|AGAB G2 AB|
c2 ec B2 dB|AGAB AGEG|c2 ec B2 dB|AGAB G2 AB|c2 ec B2 dB|AGAB AGEG|D3E G3B|AGAB G4||

